kiosk-igrinskij/images/fe17c032ca3f72e348d10866f8bc4cbb.svg

<svg fill="none" height="14" viewBox="0 0 16 14" width="16" xmlns="http://www.w3.org/2000/svg"><path d="m14.8426 2.30716c.6219-.04234 1.1146-.54266 1.1146-1.15195 0-.636973-.5384-1.15521-1.2-1.15521h-2.4286c-.6617 0-1.2.518237-1.2 1.15521 0 .34563.1587.65607.4094.86796l.0107.01224c.6964.79975 1.0799 1.81563 1.0799 2.86046 0 2.45696-2.0763 4.4558-4.62855 4.4558-2.55223 0-4.62858-1.99884-4.62858-4.4558 0-1.04483.38355-2.06071 1.07996-2.86046l.01065-.01224c.2507-.21189.40942-.52233.40942-.86796 0-.636973-.53833-1.15521-1.2-1.15521h-2.42867c-.661664 0-1.1999957.518237-1.1999957 1.15521 0 .60929.4926627 1.10961 1.1146057 1.15195-.753737 1.19371-1.15744 2.56728-1.15744 3.99146 0 4.24658 3.5888 7.70138 8 7.70138s8-3.4548 8-7.70138c0-1.42418-.4037-2.79775-1.1574-3.99146zm-10.27117 9.09364c-.50496 0-.91429-.3941-.91429-.8802s.40933-.88015.91429-.88015.91428.39405.91428.88015-.40932.8802-.91428.8802zm3.42857.8801c-.50496 0-.91429-.394-.91429-.8801s.40933-.8802.91429-.8802.91429.3941.91429.8802-.40933.8801-.91429.8801zm3.4286-.8801c-.505 0-.9143-.3941-.9143-.8802s.4093-.88015.9143-.88015c.5049 0 .9143.39405.9143.88015s-.4094.8802-.9143.8802z" fill="#f1e9dd"/></svg>

<svg width="16" height="14" viewBox="0 0 16 14" fill="none" xmlns="http://www.w3.org/2000/svg">
<path d="M14.8426 2.30716C15.4645 2.26482 15.9572 1.7645 15.9572 1.15521C15.9572 0.518237 15.4188 0 14.7572 0H12.3286C11.6669 0 11.1286 0.518237 11.1286 1.15521C11.1286 1.50084 11.2873 1.81128 11.538 2.02317L11.5487 2.03541C12.2451 2.83516 12.6286 3.85104 12.6286 4.89587C12.6286 7.35283 10.5523 9.35167 8.00005 9.35167C5.44782 9.35167 3.37147 7.35283 3.37147 4.89587C3.37147 3.85104 3.75502 2.83516 4.45143 2.03541L4.46208 2.02317C4.71278 1.81128 4.8715 1.50084 4.8715 1.15521C4.8715 0.518237 4.33317 0 3.6715 0H1.24283C0.581166 0 0.0428343 0.518237 0.0428343 1.15521C0.0428343 1.7645 0.535497 2.26482 1.15744 2.30716C0.403703 3.50087 0 4.87444 0 6.29862C0 10.5452 3.5888 14 8 14C12.4112 14 16 10.5452 16 6.29862C16 4.87444 15.5963 3.50087 14.8426 2.30716ZM4.57143 11.4008C4.06647 11.4008 3.65714 11.0067 3.65714 10.5206C3.65714 10.0345 4.06647 9.64045 4.57143 9.64045C5.07639 9.64045 5.48571 10.0345 5.48571 10.5206C5.48571 11.0067 5.07639 11.4008 4.57143 11.4008ZM8 12.2809C7.49504 12.2809 7.08571 11.8869 7.08571 11.4008C7.08571 10.9147 7.49504 10.5206 8 10.5206C8.50496 10.5206 8.91429 10.9147 8.91429 11.4008C8.91429 11.8869 8.50496 12.2809 8 12.2809ZM11.4286 11.4008C10.9236 11.4008 10.5143 11.0067 10.5143 10.5206C10.5143 10.0345 10.9236 9.64045 11.4286 9.64045C11.9335 9.64045 12.3429 10.0345 12.3429 10.5206C12.3429 11.0067 11.9335 11.4008 11.4286 11.4008Z" fill="#F1E9DD"/>
</svg>
